!!!id: BC001
!!!page: 4-5
!!!COM: Lavallée, Calixa
!!!LYR: Routhier, juge A.-B.
!!!PTL@@FR: Les 100 plus belles chansons
!!!OTL@@FR:O Canada, Terre de nos aïeux
!!!PUB:La Bonne Chanson, inc.
!!!YEM: On ne peut reproduire, enregistrer ou diffuser en tout ou en partie le présent ouvrage, sous quelque procédé que ce soit, électronique, mécanique, photographique, sonore, magnétique ou autre, sans avoir obtenu au préalable l'autorisation écrite de l'éditrice.
!!!PDT: 2011
!!!SMA:2012 Bibliothèque nationale du Québec; Biblothèque nationale du Canada
!!!AGN-Laforte: Chanson strophique (sans refrain), 8:10/14(8+6)
!!!AGN-type: Hymne national
!!!AGN-rime: mixtes (aabc,bcbc)
**kern	**text	**text	**text	**text
*clefG2	*	*	*	*
*k[b-]	*	*	*	*
*F:	*	*	*	*
!!LO:TX:a:t=Majestueux et résolu
*M4/4	*	*	*	*
*	*v:1	*v:2	*v:3	*v:4
*	*pline:1	*pline:9	*pline:17	*pline:25
{{2a	O	Sous	De	A-
4.cc	Ca-	l'oeil	son	-mour
8cc	-na-	de	pa-	sa-
=2	=2	=2	=2	=2
2.f}	-da!	Dieu,	-tron,	-cré
{4g	Ter-	près	pré-	du
=3	=3	=3	=3	=3
4a	-re	du	-cur-	trôn[e]
4b-	de	fleu-	-seur	et
4cc	nos	-ve	du	de
4dd	aï-	gé-	vrai	l'au-
=4	=4	=4	=4	=4
2g	-eux,	-ant,	Dieu,	-tel,
*	*rp:ø	*rp:ã	*rp:ø	*rp:ɛ
*	*rf:jø	*rf:ã	*rf:ø	*rf:tɛl
*	*rs:a	*rs:d	*rs:g	*rs:j
2r}}	.	.	.	.
!!LO:PB:g=original
=5	=5	=5	=5	=5
*	*pline:2	*pline:10	*pline:18	*pline:26
{{2a	Ton	Le	Il	Rem-
4.b	front	Ca-	port[e]	-plis
8b	est	-na-	au	nos
=6	=6	=6	=6	=6
2.cc}	ceint	-dien	front	coeurs
{4dd	de	gran-	l'au-	de
=7	=7	=7	=7	=7
4ee	fleu-	-dit	-ré-	ton
4ee	-rons	en	-o-	souffl[e]
4dd	glo-	es-	-le	im-
4dd	-ri-	-pé-	de	-mor-
=8	=8	=8	=8	=8
2cc	-eux;	-rant.	feu;	-tel!
*	*rp:ø	*rp:ã	*rp:ø	*rp:ɛ
*	*rf:jø	*rf:ã	*rf:ø	*rf:tɛl
*	*rs:a	*rs:d	*rs:g	*rs:j
4r}}	.	.	.	.
*	*pline:3	*pline:11	*pline:19	*pline:27
{{8.g	Car	Il	En-	Par-
16a	ton	est	-ne-	.
!!LO:PB:g=original
=9	=9	=9	=9	=9
4.b-	bras	né	-mi	-mi
8a	sait	d'u-	de	les
4g	por-	-ne	la	rac[es]
8.a	-ter	ra-	ty-	é-
16b-	l'é-	-ce	-ran-	-tran-
=10	=10	=10	=10	=10
(4.cc	-pé-	fiè-	-ni-	-gè-
8b-)	.	.	.	.
4a}	-e,	-re,	-e,	-res,
*	*rp:e	*rp:ɛ	*rp:i	*rp:ɛ
*	*rf:pe,ə	*rf:jɛr,ə	*rf:ni,ə	*rf:ɛʁ,ə
*	*rs:b	*rs:e	*rs:h	*rs:k
*	*pline:4	*pline:12	*pline:20	*pline:28
{4cc	Il	Bé-	Mais	No-
=11	=11	=11	=11	=11
4dd	sait	-ni	plein	-tre
4cc	por-	fut	de	guid[e]
4b-	-ter	son	loy-	est
4a	la	ber-	au-	la
!!LO:PB:g=original
=12	=12	=12	=12	=12
2g}}	croix!	-ceau;	-té,	loi;
*	*rp:a	*rp:o	*rp:e	*rp:a
*	*rf:wa	*rf:o	*rf:te	*rf:wa
*	*rs:c	*rs:f	*rs:i	*rs:c
*	*pline:5	*pline:13	*pline:21	*pline:29
{{8.g	Ton	Le	Il	Sa-
16a	his-	ciel	veut	-chons
=13	=13	=13	=13	=13
4.b-	-toir[e]	a	gar-	êtr[e]
8a	est	mar-	-der	un
4g	un[e]	-qué	dans	peu-
8.a	é-	sa	l'har-	-ple
16b-	-po-	car-	-mo-	de
=14	=14	=14	=14	=14
(4.cc	pé-	-riè-	-ni-	frè-
8b-)	.	.	.	.
4a}	-e	-re	-e	-res,
*	*rp:e	*rp:ɛ	*rp:i	*rp:ɛ
*	*rf:pe,ə	*rf:jɛr,ə	*rf:ni,ə	*rf:ɛʁ,ə
*	*rs:b	*rs:e	*rs:h	*rs:k
*	*pline:6	*pline:14	*pline:22	*pline:30
{4a	Des	Dans	Sa	Sous
!!LO:PB:g=original
=15	=15	=15	=15	=15
4g	plus	ce	fiè-	le
4cc	bril-	mon-	-re	joug
(8cc	-lants	-de	li-	de
8b)	.	.	.	.
(8a	ex-	nou-	-ber-	la
8b/)	.	.	.	.
=16	=16	=16	=16	=16
2cc	-ploits.	-veau.	-té,	foi,
*	*rp:a	*rp:o	*rp:e	*rp:a
*	*rf:wa	*rf:o	*rf:te	*rF:wa
*	*rs:c	*rs:f	*rs:i	*rs:c
2r}}	.	.	.	.
=17	=17	=17	=17	=17
*	*pline:7	*line:15	*pline:23	*pline:31
{{2a	Et	Tou-	Et	Et
4.cc	ta	-jours	par	ré-
8cc	va-	gui-	l'ef-	-pé-
!!LO:PB:g=original
=18	=18	=18	=18	=18
2f	-leur,	-dé	-fort	-tons
2r}	.	.	.	.
=19	=19	=19	=19	=19
{2b-	De	par	de	com-
4.dd	foi	sa	son	-me
8dd	trem-	lu-	gé-	nos
=20	=20	=20	=20	=20
2g	-pé-	-miè-	-ni-	pè-
4g	-e,	-re,	-e,	-res
*	*rp:e	*rp:ɛ	*rp:i	*rp:ɛ
*	*rf:pe,ə	*rf:jɛr,ə	*rf:ni,ə	*rf:ɛʁ,ə
*	*rs:b	*rs:e	*rs:i	*rs:k
4r}}	.	.	.	.
=21	=21	=21	=21	=21
*	*pline:8	*pline:16	*pline:24	*pline:32
{{2cc	Pro-	Il	Sur	Le
4.cc#	-té-	gar-	no-	cri
8cc#	-ge-	-de-	-tre	vain-
!!LO:PB:g=original
=22	=22	=22	=22	=22
4dd	-ra	-ra	sol	-queur:
4b-	nos	l'hon-	as-	"Pour
4a	foy-	-neur	-seoir	le
4g	-ers	de	la	Christ
=23	=23	=23	=23	=23
2f	et	son	vé-	et
2g	nos	dra-	-ri-	le
=24	=24	=24	=24	=24
2a	droits,	-peau.	-té.	Roi!"
*	*rp:a	*rp:o	*rp:e	*rp:a
*	*rf:wa	*rf:o	*rf:te	*rf:wa
*	*rs:c	*rs:f	*rs:h	*rs:c
2r}	.	.	.	.
!!LO:PB:g=original
=25	=25	=25	=25	=25
*	*pline:8r	*pline:16r	*pline:24r	*pline:32r
{2cc	Pro-	Il	Sur	Le
4.ff	-té-	gar-	no-	cri
8ff	-ge-	-de-	-tre	vain-
=26	=26	=26	=26	=26
4dd	-ra	-ra	sol	-queur:
4b-	nos	l'hon-	as-	Pour
4a	foy-	-neur	-seoir	le
4g	-ers	de	la	Christ
=27	=27	=27	=27	=27
2cc	et	son	vé-	et
2e	nos	dra-	-ri-	le
=28	=28	=28	=28	=28
2.f	droits!	-peau.	-té.	Roi!"
4r}}	.	.	.	.
==	==	==	==	==
*-	*-	*-	*-	*-
!!!EED: Ève Poudrier
!!!EEV: 2025/03/09
